build/category/NewspaperOutline.svg

<svg xmlns="http://www.w3.org/2000/svg" fill="none" viewBox="0 0 24 24" focusable="false"><path d="M0 0H24V24H0z"/><path fill="#74767B" fill-rule="evenodd" d="M12.9678 3.90381L6.70654 3.90381C6.48258 3.90381 6.26367 3.92733 6.0498 3.97437C5.86914 4.01408 5.69238 4.07056 5.51953 4.1438C5.3457 4.2172 5.18148 4.30493 5.02686 4.40698C4.85628 4.51945 4.69743 4.64966 4.55029 4.79712C4.40283 4.94458 4.27279 5.10352 4.16016 5.27393C4.05794 5.42855 3.97005 5.59269 3.89648 5.76636C3.82324 5.93953 3.76676 6.11637 3.72705 6.29688C3.68018 6.51074 3.65674 6.72974 3.65674 6.95386L3.65674 16.2732C3.65674 16.4973 3.68034 16.7162 3.72754 16.9299C3.76725 17.1104 3.82373 17.2873 3.89697 17.4604C3.97021 17.6341 4.05794 17.7983 4.16016 17.9529C4.27246 18.1233 4.40283 18.2822 4.55029 18.4297C4.83154 18.7109 5.1543 18.9287 5.51953 19.0833C5.69271 19.1565 5.86947 19.2129 6.0498 19.2524C6.26335 19.2993 6.48275 19.323 6.70703 19.323L17.9463 19.323C18.3203 19.3101 18.749 19.2288 19.0938 19.083C19.459 18.9287 19.7817 18.7109 20.063 18.4297C20.3442 18.1484 20.562 17.8254 20.7163 17.4604C20.8765 17.0823 20.9565 16.6865 20.9565 16.2729L20.9565 10.6692C20.9565 10.4451 20.9331 10.2261 20.8857 10.0125C20.8462 9.83179 20.7896 9.65503 20.7163 9.48193C20.6431 9.30811 20.5552 9.14404 20.4531 8.98926C20.3405 8.81885 20.2104 8.65991 20.063 8.51245C19.9155 8.36523 19.7568 8.23511 19.5864 8.12256C19.4316 8.02051 19.2676 7.93262 19.0938 7.85913C18.9209 7.78589 18.7437 7.72949 18.5635 7.6897C18.3496 7.64266 18.1305 7.61914 17.9062 7.61914L16.0176 7.61914L16.0176 6.95386C16.0176 6.72974 15.9941 6.51082 15.9473 6.29712C15.9076 6.11646 15.8511 5.93953 15.7778 5.76636C15.7043 5.59285 15.6165 5.42879 15.5146 5.27417C15.402 5.1036 15.272 4.94458 15.1245 4.79712C14.9771 4.64966 14.818 4.51969 14.6475 4.40723C14.4928 4.30501 14.3288 4.2172 14.1553 4.1438C13.9819 4.07056 13.8047 4.01392 13.6245 3.97437C13.4106 3.92725 13.1919 3.90381 12.9678 3.90381ZM14.7173 8.26929L14.7178 6.95386C14.7178 6.81779 14.7028 6.68514 14.6729 6.55591C14.6509 6.45972 14.6196 6.36523 14.5806 6.27271C14.4917 6.06348 14.3667 5.87817 14.2051 5.71631C14.1175 5.62874 14.0229 5.55184 13.9214 5.4856C13.8358 5.42977 13.7445 5.38159 13.6484 5.34106C13.5562 5.302 13.4619 5.27124 13.3657 5.24902C13.2365 5.21891 13.1038 5.20386 12.9678 5.20386L6.70654 5.20386C6.57048 5.20386 6.43783 5.21891 6.30859 5.24902C6.21289 5.27124 6.11816 5.302 6.02588 5.34106C5.92985 5.38159 5.83903 5.42977 5.75342 5.4856C5.65153 5.55184 5.5568 5.62874 5.46924 5.71631C5.38167 5.80404 5.30485 5.89876 5.23877 6.00049C5.18262 6.08618 5.13428 6.177 5.09375 6.27295C5.05501 6.36507 5.02441 6.45923 5.00195 6.55542C4.97168 6.68457 4.95654 6.81738 4.95654 6.95386L4.95703 16.2732C4.95703 16.5107 5.00244 16.7378 5.09424 16.9541C5.18262 17.1633 5.30762 17.3489 5.46924 17.5105C5.63086 17.6721 5.81641 17.7974 6.02588 17.8857C6.11816 17.9248 6.2124 17.9556 6.30859 17.978C6.43783 18.0081 6.57064 18.0232 6.70703 18.0232L15.2686 18.0232C15.146 17.8481 15.0425 17.6606 14.9575 17.4604C14.8843 17.2874 14.8281 17.1106 14.7881 16.9299C14.7412 16.7163 14.7178 16.4973 14.7178 16.2732L14.7173 8.26929ZM11.894 8.91919L7.74609 8.91919C7.38232 8.91919 7.09619 8.6333 7.09619 8.26929C7.09619 7.90527 7.38232 7.61914 7.74609 7.61914L11.894 7.61914C12.2583 7.61914 12.5444 7.90527 12.5444 8.26929C12.5444 8.6333 12.2583 8.91919 11.894 8.91919ZM17.7847 18.0229C17.5474 18.0229 17.3032 17.9773 17.0869 17.8857C16.8774 17.7974 16.6919 17.6721 16.5303 17.5105C16.4424 17.4229 16.3657 17.3281 16.2993 17.2263C16.2437 17.1406 16.1953 17.0498 16.1548 16.9541C16.0635 16.7378 16.0176 16.5107 16.0176 16.2732L16.0176 8.91919L17.9062 8.91919C18.043 8.91919 18.1758 8.93433 18.3047 8.96436C18.4007 8.98682 18.4953 9.0175 18.5874 9.0564C18.6831 9.09692 18.7739 9.14526 18.8599 9.20093C18.9614 9.26709 19.0562 9.34424 19.144 9.43188C19.2314 9.51953 19.3086 9.61426 19.3745 9.71582C19.4302 9.80143 19.4787 9.89258 19.519 9.98828C19.5581 10.0806 19.5889 10.1747 19.6113 10.2708C19.6413 10.4001 19.6562 10.533 19.6562 10.6692L19.6562 16.2729C19.6562 16.5107 19.6108 16.7375 19.519 16.9541C19.4307 17.1633 19.3057 17.3489 19.144 17.5105C18.9819 17.6721 18.7969 17.7971 18.5874 17.8857C18.4953 17.9248 18.401 17.9555 18.3047 17.9778C18.1755 18.0079 18.0426 18.0229 17.9062 18.0229L17.7847 18.0229ZM7.74609 12.1658L10.4697 12.1658C10.8335 12.1658 11.1196 11.8799 11.1196 11.5159C11.1196 11.1519 10.8335 10.8657 10.4697 10.8657L7.74609 10.8657C7.38184 10.8657 7.09619 11.1519 7.09619 11.5159C7.09619 11.8799 7.38184 12.1658 7.74609 12.1658ZM7.74609 15.4124L11.894 15.4124C12.2583 15.4124 12.5444 15.1265 12.5444 14.7625C12.5444 14.3984 12.2583 14.1123 11.894 14.1123L7.74609 14.1123C7.38232 14.1123 7.09619 14.3984 7.09619 14.7625C7.09619 15.1265 7.38232 15.4124 7.74609 15.4124Z"/></svg>

<svg xmlns="http://www.w3.org/2000/svg" fill="none" viewBox="0 0 24 24" focusable="false"><path fill="#74767B" fill-rule="evenodd" d="M12.96 3.9H6.7a3 3 0 0 0-1.19.24c-.17.07-.33.16-.49.26-.17.11-.33.24-.47.39q-.225.225-.39.48c-.11.15-.2.32-.27.49s-.13.35-.17.53c-.04.22-.07.43-.07.66v9.32c0 .22.03.44.07.65.04.19.1.36.17.54.08.17.16.33.27.49.11.17.24.33.39.47.28.29.6.5.96.66.18.07.35.13.53.17.22.04.44.07.66.07h11.24c.38-.01.8-.1 1.15-.24.36-.16.69-.37.97-.66.28-.28.5-.6.65-.96.16-.38.24-.78.24-1.19v-5.61c0-.22-.02-.44-.07-.65a3.3 3.3 0 0 0-.43-1.03c-.11-.17-.24-.33-.39-.47q-.225-.225-.48-.39c-.15-.1-.32-.19-.49-.27-.17-.07-.35-.13-.53-.17-.22-.04-.43-.07-.66-.07h-1.89v-.66c0-.23-.02-.44-.07-.66-.04-.18-.09-.36-.17-.53-.07-.17-.16-.34-.26-.49q-.165-.255-.39-.48t-.48-.39c-.15-.1-.32-.19-.49-.26s-.35-.13-.53-.17c-.21-.05-.43-.07-.66-.07m1.75 4.36V6.95c0-.14-.01-.27-.04-.4-.02-.1-.06-.19-.09-.28a1.8 1.8 0 0 0-.66-.79c-.09-.06-.18-.1-.28-.14-.09-.04-.18-.07-.28-.1-.13-.03-.26-.04-.4-.04H6.7c-.13 0-.27.01-.4.04-.09.03-.19.06-.28.1-.1.04-.19.08-.27.14-.1.07-.2.14-.29.23-.08.09-.16.18-.23.29-.05.08-.1.17-.14.27-.04.09-.07.18-.09.28-.03.13-.05.26-.05.4v9.32c0 .24.05.46.14.68.09.21.21.39.37.56.17.16.35.28.56.37a1.825 1.825 0 0 0 .68.14h8.56c-.12-.18-.22-.36-.31-.56-.07-.18-.13-.35-.17-.54-.04-.21-.07-.43-.07-.65zm-2.82.65H7.74c-.36 0-.65-.28-.65-.65 0-.36.29-.65.65-.65h4.15c.36 0 .65.29.65.65 0 .37-.29.65-.65.65m5.89 9.11c-.24 0-.48-.05-.7-.14a1.7 1.7 0 0 1-.55-.37c-.09-.09-.17-.19-.24-.29-.05-.08-.1-.18-.14-.27a1.8 1.8 0 0 1-.14-.68V8.91h1.89c.14 0 .27.02.4.05.1.02.19.05.28.09q.15.06.27.15c.11.06.2.14.29.23.09.08.16.18.23.28.06.09.1.18.14.27.04.1.07.19.1.29.03.13.04.26.04.39v5.61c0 .24-.04.46-.14.68-.08.21-.21.39-.37.56a1.76 1.76 0 0 1-.84.46c-.13.03-.26.05-.4.05zM7.74 12.16h2.72c.37 0 .65-.29.65-.65s-.28-.65-.65-.65H7.74c-.36 0-.65.29-.65.65s.29.65.65.65m0 3.25h4.15c.36 0 .65-.29.65-.65 0-.37-.29-.65-.65-.65H7.74c-.36 0-.65.28-.65.65 0 .36.29.65.65.65"/></svg>
